src/assets/icons/messages-bold.svg

<svg width="20" height="19" viewBox="0 0 20 19" fill="none" xmlns="http://www.w3.org/2000/svg">
<path d="M9.55 8.85007C9.823 9.03207 10.177 9.03207 10.45 8.85007L20 2.48407V2.26807C20 1.02807 18.99 0.0180664 17.75 0.0180664H2.25C1.01 0.0180664 0 1.02807 0 2.26807V2.46507L9.55 8.85007Z" fill="black"/>
<path d="M11.26 10.0631C10.877 10.3181 10.44 10.4451 10 10.4451C9.56 10.4451 9.12301 10.3181 8.74001 10.0621L0 4.22009V15.8901C0 17.1301 1.01 18.1401 2.25 18.1401H17.75C18.99 18.1401 20 17.1301 20 15.8901V4.2381L11.26 10.0611V10.0631Z" fill="black"/>
</svg>

<svg width="20" height="19" fill="none" xmlns="http://www.w3.org/2000/svg"><path d="M9.55 8.85a.81.81 0 0 0 .9 0L20 2.484v-.216c0-1.24-1.01-2.25-2.25-2.25H2.25C1.01.018 0 1.028 0 2.268v.197L9.55 8.85z" fill="#000"/><path d="M11.26 10.063a2.266 2.266 0 0 1-2.52 0L0 4.22v11.67c0 1.24 1.01 2.25 2.25 2.25h15.5c1.24 0 2.25-1.01 2.25-2.25V4.238l-8.74 5.823v.002z" fill="#000"/></svg>
